img/advantage/blue/icon-5-b.svg

<svg width="65" height="63" viewBox="0 0 65 63" fill="none" xmlns="http://www.w3.org/2000/svg">
<path d="M61.9501 56.1614H57.4069V31.664C57.4069 31.138 56.9806 30.7118 56.4548 30.7118C55.9289 30.7118 55.5026 31.138 55.5026 31.664V56.1614H41.5194V24.2146C41.5194 23.9691 41.7191 23.7694 41.9645 23.7694H55.0574C55.3029 23.7694 55.5025 23.9691 55.5025 24.2146V27.213C55.5025 27.739 55.9288 28.1652 56.4547 28.1652C56.9805 28.1652 57.4068 27.739 57.4068 27.213V24.2146C57.4068 22.9191 56.3528 21.8651 55.0574 21.8651H49.4631V14.8064L60.7698 9.30895C61.3902 9.00718 61.7755 8.3912 61.7755 7.70147C61.7755 7.01173 61.3901 6.39588 60.7698 6.09411L50.1276 0.919632C49.57 0.64846 48.9235 0.683118 48.398 1.01205C47.8725 1.34086 47.5588 1.90733 47.5588 2.52724V21.8652H41.9645C40.6689 21.8652 39.6151 22.9192 39.6151 24.2148V34.4493H26.0769C24.7815 34.4493 23.7275 35.5033 23.7275 36.7987V45.2199H10.1894C8.89383 45.2199 7.83999 46.2739 7.83999 47.5694V56.1615H3.05005C1.36817 56.1614 0 57.5296 0 59.2113C0 60.8931 1.36817 62.2611 3.04992 62.2611H61.95C63.6317 62.2611 64.9999 60.8931 64.9999 59.2113C64.9999 57.5296 63.6318 56.1614 61.9501 56.1614ZM49.4632 2.71399L59.7208 7.70147L49.4632 12.6889V7.70147V2.71399ZM9.74429 47.5693C9.74429 47.3238 9.94398 47.1241 10.1894 47.1241H23.7275V49.6469C23.7275 50.1729 24.1538 50.5991 24.6797 50.5991C25.2055 50.5991 25.6318 50.1729 25.6318 49.6469V36.7986C25.6318 36.5531 25.8315 36.3535 26.0769 36.3535H39.6151V56.1613H25.6318V54.0984C25.6318 53.5724 25.2055 53.1462 24.6797 53.1462C24.1538 53.1462 23.7275 53.5724 23.7275 54.0984V56.1613H9.74429V47.5693ZM61.9501 60.3569H3.04992C2.4182 60.3569 1.9043 59.843 1.9043 59.2114C1.9043 58.5798 2.4182 58.0658 3.04992 58.0658H61.95C62.5817 58.0658 63.0956 58.5798 63.0956 59.2114C63.0956 59.843 62.5818 60.3569 61.9501 60.3569Z" fill="#1E489B"/>
</svg>

<svg width="65" height="63" fill="none" xmlns="http://www.w3.org/2000/svg"><path d="M61.95 56.161h-4.543V31.664a.952.952 0 1 0-1.904 0v24.497H41.519V24.215c0-.246.2-.446.446-.446h13.092c.246 0 .445.2.445.446v2.998a.952.952 0 1 0 1.905 0v-2.998a2.352 2.352 0 0 0-2.35-2.35h-5.594v-7.059L60.77 9.31A1.775 1.775 0 0 0 61.775 7.7c0-.69-.385-1.305-1.005-1.607L50.128.92a1.777 1.777 0 0 0-1.73.092c-.526.329-.84.895-.84 1.515v19.338h-5.593a2.352 2.352 0 0 0-2.35 2.35v10.234H26.077a2.352 2.352 0 0 0-2.35 2.35v8.42H10.19a2.352 2.352 0 0 0-2.349 2.35v8.592H3.05A3.053 3.053 0 0 0 0 59.211a3.053 3.053 0 0 0 3.05 3.05h58.9a3.053 3.053 0 0 0 3.05-3.05 3.053 3.053 0 0 0-3.05-3.05zM49.463 2.714l10.258 4.987-10.258 4.988V2.714zM9.744 47.569c0-.245.2-.445.445-.445h13.538v2.523a.952.952 0 1 0 1.905 0V36.799c0-.246.2-.446.445-.446h13.538v19.808H25.632v-2.063a.952.952 0 1 0-1.905 0v2.063H9.744V47.57zM61.95 60.357H3.05a1.147 1.147 0 0 1-1.146-1.146c0-.631.514-1.145 1.146-1.145h58.9c.632 0 1.146.514 1.146 1.145 0 .632-.514 1.146-1.146 1.146z" fill="#1E489B"/></svg>
